X:1483
T:Butcher's Apron, The
R:reel
N:"collected from J. O'Neill"
B:"O'Neill's Dance Music of Ireland, 1483"
T: praiscin m-busteoir.
Z:transcribed by John B. Walsh, 8/22/96
M:C|
L:1/8
K:D
d2 (AF) d2(AF)|Efed cABc|defe dcdB|AdAF EFGE|
d2(AF) d2(AF)|Efed cABc|defe dcdB|ABAG FD D2||
a2 (fa) dafa|b2 (gb) ebgb|a2 (fa) dafa|gefd ceef|
a2 (fa) dafa|b2 (gb) ebgb|agfe dcdB|ABAG FD D2||


